svgs/sharp-regular/message-slash.svg

<svg xmlns="http://www.w3.org/2000/svg" viewBox="0 0 640 512"><!--! Font Awesome Pro 6.6.0 by @fontawesome - https://fontawesome.com License - https://fontawesome.com/license (Commercial License) Copyright 2024 Fonticons, Inc. --><path d="M272 480l-48 32 0-48 0-9.7 0-38.3-48 0-64 0-48 0 0-48 0-221.6 48 37.8L112 368l112 0 48 0 0 48 0 6.3 69.4-46.2L349 371l57.1 45L368 416l-96 64zM112 64.2L503.3 368l24.7 0 0-320L112 48l0 16.2zM64 26.9L64 0l48 0L528 0l48 0 0 48 0 320 0 48-10.8 0 55.8 43.3 19 14.7-29.4 37.9-19-14.7L19 52.7 0 38 29.4 .1l19 14.7L64 26.9z"/></svg>

<svg xmlns="http://www.w3.org/2000/svg" viewBox="0 0 640 512"><!--! Font Awesome Pro 6.4.0 by @fontawesome - https://fontawesome.com License - https://fontawesome.com/license (Commercial License) Copyright 2023 Fonticons, Inc. --><path d="M272 480l-48 32V464v-9.7V416H176 112 64V368 146.4l48 37.8V368H224h48v48 6.3l69.4-46.2L349 371l57.1 45H368l-96 64zM112 64.2L503.3 368H528V48H112V64.2zM64 26.9V0h48H528h48V48 368v48H565.2l55.8 43.3 19 14.7-29.4 37.9-19-14.7L19 52.7 0 38 29.4 .1l19 14.7L64 26.9z"/></svg>
